X: 20
T: Man Of The House, The
Z: UPipes & harp
S: https://thesession.org/tunes/222#setting48987
R: reel
M: 4/4
L: 1/8
K: Emin
|:E2BE GABG|E2BE AFDF|E2BE GABe|1 dBBA BEED:|2 dBBA BEEd||
efge fgaf|gfed edBd|efge fgaf|gfed Beed|
efge fgaf|gfed efga|bgaf gfed|edBA BEED||

